src/assets/gnome-shell/activities-black/activities-zorin.svg

<?xml version="1.0" encoding="UTF-8" standalone="no"?>
<svg
   width="48"
   height="48"
   version="1.1"
   id="svg4"
   sodipodi:docname="activities-zorin.svg"
   inkscape:version="1.1 (c4e8f9ed74, 2021-05-24)"
   xmlns:inkscape="http://www.inkscape.org/namespaces/inkscape"
   xmlns:sodipodi="http://sodipodi.sourceforge.net/DTD/sodipodi-0.dtd"
   xmlns="http://www.w3.org/2000/svg"
   xmlns:svg="http://www.w3.org/2000/svg">
  <defs
     id="defs8" />
  <sodipodi:namedview
     id="namedview6"
     pagecolor="#d6d6d6"
     bordercolor="#666666"
     borderopacity="1.0"
     inkscape:pageshadow="2"
     inkscape:pageopacity="0"
     inkscape:pagecheckerboard="0"
     showgrid="false"
     inkscape:zoom="10.90123"
     inkscape:cx="13.57645"
     inkscape:cy="20.364675"
     inkscape:window-width="1920"
     inkscape:window-height="1016"
     inkscape:window-x="0"
     inkscape:window-y="28"
     inkscape:window-maximized="1"
     inkscape:current-layer="svg4" />
  <path
     d="M 15.741041,6 C 14.641247,6 13.290253,6.790136 12.741056,7.7538912 L 10.08087,12.429668 H 37.91673 L 41.108114,18.02344 35.256544,7.7538912 C 34.707426,6.790116 33.356353,6 32.256559,6 Z m 25.367873,12.02334 -23.92188,12.406138 h 23.663882 l 2.663986,-4.675777 c 0.549178,-0.963775 0.549178,-2.543987 0,-3.507782 z M 7.1490841,17.570222 4.4850974,22.245999 c -0.5491772,0.963775 -0.5491772,2.543987 0,3.507782 L 6.8912854,29.97636 30.813166,17.570222 Z M 12.742856,40.246109 C 13.292053,41.209884 14.643047,42 15.742841,42 h 16.515518 c 1.099794,0 2.450987,-0.790116 2.999985,-1.753891 L 37.91853,35.570332 H 10.08267"
     fill="#333333"
     stroke-width="0.642857"
     id="path2" />
</svg>

<svg xmlns="http://www.w3.org/2000/svg" width="48" height="48"><path fill="#333" d="M15.741 6c-1.1 0-2.45.79-3 1.754l-2.66 4.676h27.836l3.191 5.593-5.851-10.27c-.55-.963-1.9-1.753-3-1.753Zm25.368 12.023L17.187 30.43h23.664l2.664-4.675c.55-.964.55-2.544 0-3.508zm-33.96-.453-2.664 4.676c-.55.964-.55 2.544 0 3.508l2.406 4.222L30.813 17.57Zm5.594 22.676c.55.964 1.9 1.754 3 1.754h16.515c1.1 0 2.451-.79 3-1.754l2.66-4.676H10.084"/></svg>
